X:16
T:ROND DE SAINT-VINCENT N 3
Z: Yves BELOTTEAU
M:4/4
L:1/4
Q:1/4=80
K:G 
|EF/2^G/2A^G/2A/2 cB/2A/2=G2|cB/2c/2dB c2A2|EF/2^G/2A^G/2A/2 cB/2A/2=G2|
cB/2c/2dB c2A2|
E2AA/2B/2 G2AA/2B/2|G2AA/2B/2 A/2G/2A/2B/2AG/2G/2|cB/2c/2dc/2B/2 AcA|
